actions/22x22-dark/labplot-xy-fit-curve.svg

<svg xmlns="http://www.w3.org/2000/svg" viewBox="0 0 22 22">
  <defs id="defs3051">
    <style type="text/css" id="current-color-scheme">
      .ColorScheme-Text {
        color:#f2f2f2;
      }
      .ColorScheme-Highlight {
        color:#3daee9;
      }
      </style>
  </defs>
 <path 
     style="fill:currentColor;fill-opacity:1;stroke:none" 
     d="M 18.662109 3.6308594 L 8 13.404297 L 8 14 L 8.8300781 14 L 19.337891 4.3691406 L 18.662109 3.6308594 z "
     class="ColorScheme-Highlight"
     />
 <path 
     style="fill:currentColor;fill-opacity:1;stroke:none" 
     d="M 4 3 L 4 17 L 3 17 L 3 18 L 4 18 L 4 19 L 5 19 L 5 18 L 19 18 L 19 17 L 5 17 L 5 3 L 4 3 z M 11.478516 4 L 11.478516 5 L 12.478516 5 L 12.478516 4 L 11.478516 4 z M 12.478516 5 L 12.478516 6 L 13.478516 6 L 13.478516 5 L 12.478516 5 z M 12.478516 6 L 11.478516 6 L 11.478516 7 L 12.478516 7 L 12.478516 6 z M 11.478516 6 L 11.478516 5 L 10.478516 5 L 10.478516 6 L 11.478516 6 z M 17 8 L 17 9 L 18 9 L 18 8 L 17 8 z M 18 9 L 18 10 L 19 10 L 19 9 L 18 9 z M 18 10 L 17 10 L 17 11 L 18 11 L 18 10 z M 17 10 L 17 9 L 16 9 L 16 10 L 17 10 z M 13 11 L 13 12 L 14 12 L 14 11 L 13 11 z M 14 12 L 14 13 L 15 13 L 15 12 L 14 12 z M 14 13 L 13 13 L 13 14 L 14 14 L 14 13 z M 13 13 L 13 12 L 12 12 L 12 13 L 13 13 z M 7 13 L 7 14 L 8 14 L 8 13 L 7 13 z M 8 14 L 8 15 L 9 15 L 9 14 L 8 14 z M 8 15 L 7 15 L 7 16 L 8 16 L 8 15 z M 7 15 L 7 14 L 6 14 L 6 15 L 7 15 z "
     class="ColorScheme-Text"
     />
</svg>

<svg viewBox="0 0 22 22" xmlns="http://www.w3.org/2000/svg"><path d="m18.662109 3.6308594-10.662109 9.7734376v.595703h.8300781l10.5078129-9.6308594z" fill="#3daee9"/><path d="m4 3v14h-1v1h1v1h1v-1h14v-1h-14v-14zm7.478516 1v1h1v-1zm1 1v1h1v-1zm0 1h-1v1h1zm-1 0v-1h-1v1zm5.521484 2v1h1v-1zm1 1v1h1v-1zm0 1h-1v1h1zm-1 0v-1h-1v1zm-4 1v1h1v-1zm1 1v1h1v-1zm0 1h-1v1h1zm-1 0v-1h-1v1zm-6 0v1h1v-1zm1 1v1h1v-1zm0 1h-1v1h1zm-1 0v-1h-1v1z" fill="#f2f2f2"/></svg>
